X:1
T:Serenade
T:Serenade
T:Johan Gottfried Conradi
C:Johan Gottfried Conradi
%%score [ 1 2 3 4 ]
L:1/8
Q:1/4=42
M:2/4
K:G
V:1 treble-8 nm="T1"
V:2 treble-8 nm="T2"
V:3 bass nm="B1"
V:4 bass nm="B2"
V:1
"^Andante"!p! B B A B |!<(! (c>d)!<)!!>(! e2!>)! | A A G A |!<(! B d!<)!!>(! A2!>)! | %4
w: Nat- tens mil- de|Stjer- * ner|döl- ge ei sin|Fa- ger- hed,|
 B!<(! d g3/2!<)! f/ | f e d B |!f! A3/2 A/ B ^c |1 d3 z :|2 d2 z!p! d/ d/ || e3/2 d/ c B | %10
w: straa- le o- ver|Land og Böl- ge|al sin Yn- de|ned.|ned. Du, hvis|Ø- jes Glans for-|
 B2 A!mf!!<(! d/ f/!<)! | a3/2 g/ (f/e/) (d/c/) | c2 B2 |!f! g3/2 g/ !>!f3/2 f/ | f e !>!_e !>!d | %15
w: dun- kler, Stjer- nen,|naar den re- * nest _|fun- kler,|e- ne du dig|döl- ger gru- somt|
!>(! (d/c/) (B/A/)!>)! G F | G3 z |] %17
w: for _ min _ Kjær- lig-|hed.|
V:2
!p! G G F ^G |!<(! (A>B)!<)!!>(! c2!>)! | F F E F |!<(! G G!<)!!>(! F2!>)! | G!<(! B B!<)! d | %5
w: Nat- tens mil- de|Stjer- * ner|döl- ge ei sin|Fa- ger- hed,|straa- le o- ver|
 d c B G |!f! F3/2 A/ ^G =G |1 F3 z :|2 F2 z!p! B/ B/ || c3/2 B/ A G | G2 F!mf!!<(! F/ A/!<)! | %11
w: Land og Böl- ge|al sin Yn- de|ned.|ned. Du, hvis|Ø- jes Glans for-|dun- kler, Stjer- nen,|
 c3/2 B/ (A/c/) (B/A/) | A2 G2 |!f! B3/2 B/ !>!A3/2 A/ | G G !>!A !>!^G | %15
w: naar den re- * nest _|fun- kler,|e- ne du dig|döl- ger gru- somt|
!>(! A (^G/A/)!>)! B (c/d/) | B3 z |] %17
w: for min _ Kjær- lig- *|hed.|
V:3
!p! D, D, D, D, |!<(! E,2!<)!!>(! E,2!>)! | D, D, D, D, |!<(! D, D,!<)!!>(! D,2!>)! | %4
w: Nat- tens mil- de|Stjer- ner|döl- ge ei sin|Fa- ger- hed,|
 D,!<(! G, G,!<)! G, | G, (G,/A,/) B, D, |!f! D,3/2 F,/ =F, E, |1 D,3 z :|2 D,2 z2 || %9
w: straa- le o- ver|Land og _ Böl- ge|al sin Yn- de|ned.|ned.|
 z!p! D,/ D,/ D,/ D,/ D,/ D,/ | (D,>E,) F, z | z!mf! D,/ D,/ D,/ D,/ D,/ D,/ | (D,E,/F,/) G,2 | %13
w: Du, hvis Ø- jes Glans for-|dun- * kler,|Stjer- nen, naar den re- nest|fun- * * kler,|
!f! D,3/2 D,/ !>!^D,3/2 D,/ | E, G, !>!F, !>!=F, |!>(! E, E,!>)! D, D, | D,3 z |] %17
w: e- ne du dig|döl- ger gru- somt|for min Kjær- lig-|hed.|
V:4
!p! G,, G, D, B,, |!<(! A,,2!<)!!>(! A,,2!>)! | D, D, D, D, |!<(! G,, B,,!<)!!>(! D,2!>)! | %4
w: Nat- tens mil- de|Stjer- ner|döl- ge ei sin|Fa- ger- hed,|
 G,,!<(! G,, G,,!<)! B,, | (C,/D,/) (E,/F,/) G, G,, |!f! A,,3/2 A,,/ A,, A,, |1 D,3 z :|2 D,2 z2 || %9
w: straa- le o- ver|Land _ og _ Böl- ge|al sin Yn- de|ned.|ned.|
 z2 z!p! D,/ D,/ | D,/ D,/ D,/ ^C,/ D, D, | z4 |!mf! D,/ D,/ E,/ F,/ G,/ D,/ B,,/ G,,/ | %13
w: Du, hvis|Ø- jes Glans for- dun- kler,||Stjer- nen, naar den re- nest fun- kler,|
!f! G,,3/2 G,,/ !>!B,,3/2 B,,/ | C, C, !>!C, !>!B,, |!>(! A,, (B,,/C,/)!>)! D, D, | G,,3 z |] %17
w: e- ne du dig|döl- ger gru- somt|for min _ Kjær- lig-|hed.|

